X: 3
T: Saint Anne's Reel
C: ?
R: reel
%O: ?
S: NEFFA 2022 set
Z: 2022 John Chambers <jc:trillian.mit.edu>
M: C
L: 1/8
Q: 1/4=132 "optionally" 1/4=198
K: G
|:\
"G"B2Bc BAGE | D2B,D G,DB,D | "C"E2CE G,ECE | "G"D2B,D G,DB,D |
"G"B2Bc BAGE | D2B,D G,DB,D | "C"EGFE "D"FDEF | "G"AGGF G2GA :|
|:\
"G"B2BA GABG | "C"dccB c2cB | "D"AGFE DFAc | "G"edd^c d2d=c |
"G"B2BA GABG | "C"dccB c2cB | "D"AGFE DFAc | "G"BGGF "_fine"G2GA :|


